X: 118
T: REEL: Broken Pledge (Ddor)
C: C: Trad.; S: ThZCh; Martin Hayes
C: Set Leaders: Oliushka, Anton
Z: Anton Zille ed.; Bregolas at The Session
N: https://thesession.org/members/26966/sets/76523
R: Reel
M: 4/4
L: 1/8
Q: 1/2=100
K: Ddor
|:dcAG ADDB|cAGE EDCE|DEFG Addc|A/B/A Gc Aefe|
dcAG E/F/G AB|cAGE EDCE|DEFG Addc|A/B/A GE ED D2:||
|:dcAG Acde|f2 df ecAB|cAGE G2 cd|ec~c2 eage|
dcAG Acde|~f2 df ecAG|~F3E FGAB|cAGE ED D2:||

